assets/icons/qvision/multiline_chart.svg

<svg xmlns="http://www.w3.org/2000/svg" height="24" viewBox="0 0 24 24" width="24"><path d="M0 0h24v24H0z" fill="none"/><path d="M22 6.92l-1.41-1.41-2.85 3.21C15.68 6.4 12.83 5 9.61 5 6.72 5 4.07 6.16 2 8l1.42 1.42C5.12 7.93 7.27 7 9.61 7c2.74 0 5.09 1.26 6.77 3.24l-2.88 3.24-4-4L2 16.99l1.5 1.5 6-6.01 4 4 4.05-4.55c.75 1.35 1.25 2.9 1.44 4.55H21c-.22-2.3-.95-4.39-2.04-6.14L22 6.92z"/></svg>

<svg width="24" height="24" viewBox="0 0 24 24" fill="none" xmlns="http://www.w3.org/2000/svg">
<g clip-path="url(#clip0_147_2714)">
<path d="M22 6.92L20.59 5.51L17.74 8.72C15.68 6.4 12.83 5 9.61 5C6.72 5 4.07 6.16 2 8L3.42 9.42C5.12 7.93 7.27 7 9.61 7C12.35 7 14.7 8.26 16.38 10.24L13.5 13.48L9.5 9.48L2 16.99L3.5 18.49L9.5 12.48L13.5 16.48L17.55 11.93C18.3 13.28 18.8 14.83 18.99 16.48H21C20.78 14.18 20.05 12.09 18.96 10.34L22 6.92Z" fill="#323232"/>
</g>
<defs>
<clipPath id="clip0_147_2714">
<rect width="24" height="24" fill="white"/>
</clipPath>
</defs>
</svg>
